X: 1
T: Gregory Greene's
M: 4/4
L: 1/8
R: reel
K: Dmaj
e2 ce Aece | ABcf edce | d2 Bd GdBd | g2 gb agfg | 
e2 ce Aece | ABcf edce | d2 Bc dfed | cdBc ABcd :|
eA A2 d2 cd | eA A2 d2 cd | eA A2 d2 cd | efge d2 cd :|
